X:1960
T:Finger Post,The. HSJJ.016
O:england
M:6/8
L:1/8
S:HSJ Jackson,Wyresdale,Lancs.1823
R:Jig
A:Lancashire
H:1823
K:A
A2a aga|A2a~a3|B2cd2f|ecA BGE|Ace|aga|Ace aga|gag fe^d|e3E3:|
|:E2e e^de|E2d dcd|ced cBA|GBA GFE|AGA BAB |cBc def|edc BAG|A3A2:|]


